X:018
T:Flowers of Edinburgh
S:from the playing of Dave Swarbrick
Z:Nigel Gatherer
M:2/4
L:1/8
K:G
D|GG BG/B/|dB g>e|dB B/A/G/A/|BG ED|
GG BG/B/|dB g>e|dB B/A/G/A/|BG G:|
d|g2 f>e|Be e>f|g2 f/g/f/e/|Be eg/e/|
d/B/G/B/ dd|e/d/e/f/ gg/e/|dB B/A/G/A/|BG G:|
<end>
<start>
